X:87
%%NRChange 2018-02-07
T:Stenberg's Brudmarsch
T:Cajsa's G\aangl\aat
O:Sweden
C:Eft: Anders Stenberg Lillh\"ardal
M:2/4
L:1/8
Q:1/4=80
R:March/G\aangl\aat
K:G
P:A
D |"G"Bc/B/ "D7"AB/A/|"C"GB "D"d3/c/|"G"Bc/B/ "D7"AB/A/|"C"GB "D"D2|
"G"Bc/B/ "D7"AB/A/|"C"GB "D"d3/c/|"G"Bc/B/ "D7"AB/A/|"G"G2 z:|
P:B
|:B/d/|"Em"gg a3/f/|"Am"dd "D"d3/c/|"G"Bc/B/ "D7"AB/A/|"C"GB "D"d3/ d/|
"Em"gg a3/f/|"Am"dd "D"d3/c/|"G"Bc/B/ "D7"AB/A/|"G"G2z:|

